images/Twitter.svg

<svg width="32" height="30" viewBox="0 0 32 30" fill="none" xmlns="http://www.w3.org/2000/svg">
<path d="M31.36 3.54658C30.5179 5.047 29.4653 6.36071 28.2489 7.42925C28.2489 7.53591 28.2489 7.70658 28.2845 7.91991L28.32 8.41058C28.3152 12.6201 27.2696 16.7333 25.3156 20.2292C24.3022 22.0426 23.1111 23.6852 21.7245 25.0932C20.2373 26.5824 18.5392 27.7385 16.7111 28.5066C14.1143 29.6204 11.3404 30.011 8.5993 29.6488C5.85815 29.2866 3.22155 28.1811 0.888916 26.4159C1.49336 26.4586 1.97336 26.5012 2.36447 26.5012C5.28003 26.5012 7.87558 25.4346 10.1511 23.3012C8.84565 23.2525 7.58384 22.7256 6.53515 21.7913C5.48645 20.857 4.70107 19.5601 4.28447 18.0746C5.21831 18.3479 6.19712 18.3035 7.11114 17.9466C5.69997 17.6147 4.42976 16.7017 3.52003 15.3652C2.5858 14.0439 2.08074 12.362 2.0978 10.6292V10.5652C2.91558 11.0772 3.84003 11.3546 4.90669 11.4186C4.05793 10.7415 3.36314 9.82132 2.88514 8.74115C2.40713 7.66099 2.16097 6.4549 2.16892 5.23191C2.16892 3.93058 2.4178 2.67191 2.96892 1.41325C4.51127 3.73093 6.45157 5.62273 8.6578 6.95991C10.9128 8.33099 13.3856 9.10919 15.9111 9.24258C15.7701 8.68886 15.6924 8.11473 15.68 7.53591C15.68 5.46658 16.2845 3.69591 17.5111 2.24525C18.1008 1.52555 18.8076 0.959099 19.5875 0.581089C20.3673 0.203079 21.2037 0.0215938 22.0445 0.0479131C22.8907 0.0488523 23.7279 0.25752 24.5044 0.661082C25.281 1.06464 25.9805 1.65457 26.56 2.39458C27.9822 2.07458 29.2978 1.45591 30.5245 0.581247C30.078 2.32482 29.1005 3.80252 27.7867 4.71991C29.1022 4.50658 30.2756 4.12258 31.36 3.56791V3.54658Z" fill="black"/>
</svg>

<svg xmlns="http://www.w3.org/2000/svg" width="32" height="30" fill="none"><path fill="#000" d="M31.36 3.547a14.78 14.78 0 0 1-3.111 3.882c0 .107 0 .278.036.49l.035.492c-.005 4.21-1.05 8.322-3.004 11.818-1.014 1.814-2.205 3.456-3.591 4.864-1.488 1.49-3.186 2.645-5.014 3.414-2.597 1.113-5.37 1.504-8.112 1.142-2.74-.362-5.377-1.468-7.71-3.233.604.043 1.084.085 1.475.085 2.916 0 5.512-1.066 7.787-3.2-1.305-.048-2.567-.575-3.616-1.51-1.049-.934-1.834-2.23-2.25-3.716a4.351 4.351 0 0 0 2.826-.128C5.7 17.615 4.43 16.702 3.52 15.365c-.934-1.321-1.44-3.003-1.422-4.736v-.064c.818.512 1.742.79 2.809.854-.85-.678-1.544-1.598-2.022-2.678a8.566 8.566 0 0 1-.716-3.51c0-1.3.249-2.56.8-3.818C4.51 3.731 6.452 5.623 8.658 6.96c2.255 1.371 4.728 2.15 7.253 2.283a7.583 7.583 0 0 1-.231-1.707c0-2.07.605-3.84 1.831-5.29A6.192 6.192 0 0 1 19.587.58a5.24 5.24 0 0 1 2.457-.533c.847 0 1.684.21 2.46.613a6.342 6.342 0 0 1 2.056 1.734c1.422-.32 2.738-.94 3.965-1.814-.447 1.744-1.424 3.222-2.738 4.139a11.94 11.94 0 0 0 3.573-1.152v-.021Z"/></svg>
